build/img/svg/icon-crown.svg

<svg width="49" height="23" viewBox="0 0 49 23" xmlns="http://www.w3.org/2000/svg">
<path d="M41.8399 22H6.99989C6.66144 22 6.3606 21.7851 6.25095 21.4657L1.0428 6.29874C0.901441 5.88527 1.12164 5.43605 1.5353 5.294C1.66216 5.25103 1.79446 5.24017 1.91725 5.26189C2.20359 5.27862 2.47046 5.45143 2.59415 5.73191C3.23797 7.19174 5.52829 11.9047 8.2001 11.9047C8.23318 11.9047 8.2667 11.9038 8.30068 11.9019C9.91229 11.8305 12.4328 9.97344 15.2885 1.53743C15.3977 1.21624 15.699 1 16.0384 1C16.3782 1 16.6795 1.21624 16.7887 1.53743C17.7637 4.41412 21.0318 11.8581 24.4253 11.8581C24.4344 11.8581 24.443 11.8576 24.4525 11.8576C26.0614 11.8382 28.5352 10.0354 31.1844 1.55507C31.2881 1.22438 31.594 1 31.9406 1H31.9483C32.298 1.00362 32.6039 1.23524 32.7008 1.57045C33.5105 4.35441 36.3821 11.6463 39.9043 11.9508C41.9622 12.12 44.2439 9.79475 46.4967 5.20172C46.6797 4.82669 47.1246 4.65796 47.5111 4.81855C47.8967 4.97824 48.0924 5.40981 47.9574 5.8052L42.5893 21.4657C42.4792 21.7856 42.1783 22 41.8399 22ZM7.56534 20.4189H41.2736L44.3758 11.3686C42.8765 12.9528 41.3542 13.6594 39.7666 13.5264C35.8656 13.1876 33.1888 7.57491 31.9442 4.27569C29.7458 10.4027 27.2915 13.4052 24.4706 13.4382C24.4552 13.4382 24.4407 13.4391 24.4253 13.4391C20.4831 13.4391 17.4398 7.40482 16.061 4.07619C13.7086 10.2743 11.1841 13.3559 8.37091 13.4817C6.92876 13.5373 5.67282 12.8198 4.59132 11.7554L7.56534 20.4189Z" fill="#A07B50" stroke="#151313" stroke-width="0.8"/>
</svg>

<svg width="49" height="23" xmlns="http://www.w3.org/2000/svg"><path d="M41.84 22H7a.792.792 0 01-.75-.534L1.044 6.299a.791.791 0 01.874-1.037.79.79 0 01.677.47c.644 1.46 2.934 6.173 5.606 6.173.033 0 .067-.001.1-.003 1.612-.071 4.133-1.929 6.989-10.365a.792.792 0 011.5 0c.975 2.877 4.243 10.321 7.636 10.321h.027c1.61-.02 4.083-1.823 6.732-10.303A.792.792 0 0131.941 1h.007c.35.004.656.235.753.57.81 2.784 3.681 10.076 7.203 10.38 2.058.17 4.34-2.155 6.593-6.748a.791.791 0 011.46.603l-5.368 15.66a.792.792 0 01-.75.535zM7.565 20.419h33.709l3.102-9.05c-1.5 1.584-3.022 2.29-4.61 2.157-3.9-.338-6.577-5.951-7.822-9.25-2.198 6.127-4.652 9.13-7.473 9.162l-.046.001c-3.942 0-6.985-6.034-8.364-9.363-2.352 6.198-4.877 9.28-7.69 9.406-1.442.055-2.698-.662-3.78-1.727l2.974 8.664z" fill="#A07B50" stroke="#151313" stroke-width=".8"/></svg>
